!!!COM: Prokofiev, Sergey
!!!CDT: 1891/04/23/-1953/03/05/
!!!OTL@@RU: Mimoletnosti 
!!!OTL@EN:  Visions fugitives
!!!ONB: set of 20 pieces
!!!ODT: 1915///-1917///
!!!OPS: Op. 22
!!!ONM: No. 2
!!!OMD: Andante
**kern	**dynam	**kern	**dynam	**kern	**dynam
*staff3	*staff3	*staff2	*staff2	*staff1	*staff1
*clefF4	*clefF4	*clefG2	*clefG2	*clefG2	*clefG2
*k[]	*k[]	*k[]	*k[]	*k[]	*k[]
*M4/4	*M4/4	*M4/4	*M4/4	*M4/4	*M4/4
*MM80	*MM80	*MM80	*MM80	*MM80	*MM80
=1-	=1-	=1-	=1-	=1-	=1-
(4AA-/	pp	4r	.	1r	.
4F\	.	(4gg\	p	.	.
4d\	.	12gg\L	.	.	.
.	.	12b\	.	.	.
.	.	12a-\J	.	.	.
4F\)	.	12f/L	.	.	.
.	.	12dd-/	.	.	.
.	.	12a-/J	.	.	.
=2	=2	=2	=2	=2	=2
(4AA-/	.	4ee\	.	1r	.
4F\	.	[2.ddn\	.	.	.
4d\	.	.	.	.	.
4F\)	.	.	.	.	.
=3	=3	=3	=3	=3	=3
*	*	*^	*	*	*
(4BBB/	.	1dd_	8.r	.	1r	.
.	.	.	16f#\	.	.	.
4E\	.	.	[2.g\	.	.	.
4d\	.	.	.	.	.	.
4E\)	.	.	.	.	.	.
=4	=4	=4	=4	=4	=4	=4
(4AAA-/	.	1dd])	8.g\L]	.	1r	.
.	.	.	16g-\Jk	.	.	.
4F\	.	.	2.f\	.	.	.
4d\	.	.	.	.	.	.
4F\)	.	.	.	.	.	.
*	*	*v	*v	*	*	*
*	*	*clefF4	*clefF4	*	*
=5	=5	=5	=5	=5	=5
(4AA-/	pp	4r	.	1r	.
4F\	.	4D\ 4E\ 4c\	pp	.	.
4d\	.	4D\ 4E\ 4c\	.	.	.
4F\)	.	4D\ 4c\	.	.	.
=6	=6	=6	=6	=6	=6
(4AA-/	.	4D\ 4B\ 4c\	.	1r	.
4F\	.	8D\ 8B-\ 8c\L	.	.	.
.	.	8Bn\J	.	.	.
4d\	.	4D\ 4B-\ 4c\	.	.	.
4F\)	.	4D\ 4A-\ 4c\	.	.	.
*	*	*clefG2	*clefG2	*	*
=7	=7	=7	=7	=7	=7
(4EE/	p	(2..cccn^\	f	1r	.
4C#/	.	.	.	.	.
4e\	.	.	.	.	.
4C#/)	.	.	.	.	.
.	.	32gg\LLL	mp	.	.
.	.	32ee\	.	.	.
.	.	32cc#\	.	.	.
.	.	32ff#\JJJ	.	.	.
=8	=8	=8	=8	=8	=8
(4EE/	.	4.ccn\	.	1r	.
4C#/	.	.	.	.	.
.	.	40gg\LLL	p	.	.
.	.	40ee\	.	.	.
.	.	40cc#\	.	.	.
.	.	40ff#\	.	.	.
.	.	40bb\JJJ	.	.	.
4e\	.	4.ccn\	.	.	.
4C#/)	.	.	.	.	.
.	.	48g/LLL	.	.	.
.	.	48e/	.	.	.
.	.	48c#/	.	.	.
.	.	48f#/	.	.	.
.	.	48b/	.	.	.
.	.	48ee/JJJ	.	.	.
=9	=9	=9	=9	=9	=9
(4EE/	.	[2cn/	.	1r	.
4C#/	.	.	.	.	.
4e\	.	32c\LLL]	.	.	.
.	.	32fn\	.	.	.
.	.	32g#\	.	.	.
.	.	32cc#\	.	.	.
.	.	32ff\	.	.	.
.	.	32gg#\	.	.	.
.	.	32bb\	.	.	.
.	.	32eee\JJJ	.	.	.
4C#/)	.	8eee\L)	.	.	.
.	.	16r	.	.	.
.	.	16aa\Jk	.	.	.
=10	=10	=10	=10	=10	=10
(4EE/	.	([2cccn\	.	1r	.
4C#/	.	.	.	.	.
4e\	.	36ccc\LLL]	.	.	.
.	.	36gg\	.	.	.
.	.	36ee\	.	.	.
.	.	36cc#\	.	.	.
.	.	36ff#\	.	.	.
.	.	36cccn\	.	.	.
.	.	36gg\	.	.	.
.	.	36ee\	.	.	.
.	.	36cc#\	.	.	.
4C#/)	.	36ff#\	.	.	.
.	.	36bb\	.	.	.
.	.	36ccn\	.	.	.
.	.	36g\	.	.	.
.	.	36e\	.	.	.
.	.	36c#\	.	.	.
.	.	36f#\	.	.	.
.	.	36b\	.	.	.
.	.	36ee\JJJ	.	.	.
=11	=11	=11	=11	=11	=11
(4EE/	.	2..cn/	mp	1r	.
4C#/	.	.	.	.	.
4e\	.	.	.	.	.
4C#/)	.	.	.	.	.
.	.	8B/	.	.	.
=12	=12	=12	=12	=12	=12
(4EE/	.	2..B-/)	.	1r	.
4D#\	.	.	.	.	.
4d#\	.	.	.	.	.
4D#\)	.	.	.	.	.
.	.	8A/	.	.	.
=13	=13	=13	=13	=13	=13
*	*	*	*	*clefG2	*clefG2
(4AA-/	.	4A-/	.	4r	.
.	.	.	.	(gggq/	.
4F\	.	[4gg\	p	2.gg\)	f
4d\	.	12gg\L]	.	.	.
.	.	12b\	.	.	.
.	.	12a-\J	.	.	.
4F\)	.	12f/L	.	.	.
.	.	12dd-/	.	.	.
.	.	12a-/J	.	.	.
=14	=14	=14	=14	=14	=14
(4AA-/	.	4ee\	.	2r	.
4F\	.	[2.ddn\	.	.	.
.	.	.	.	(gggq/	.
4d\	.	.	.	2gg\)	f
4F\)	.	.	.	.	.
=15	=15	=15	=15	=15	=15
*	*	*^	*	*	*
(4BBB/	.	1dd_	8.r	.	2r	.
.	.	.	16f#\	.	.	.
4E\	.	.	[2.g\	.	.	.
.	.	.	.	.	(gggq/	.
4d\	.	.	.	.	2gg\)	f
4E\)	.	.	.	.	.	.
=16	=16	=16	=16	=16	=16	=16
(4AAA-/	.	1dd]	8.g\L]	.	2r	.
.	.	.	16g-\Jk	.	.	.
4F\	.	.	2.f\	.	.	.
.	.	.	.	.	(gggq/	.
4d\	.	.	.	.	2gg\)	f
4F\)	.	.	.	.	.	.
*	*	*v	*v	*	*	*
*	*	*clefF4	*clefF4	*	*
=17	=17	=17	=17	=17	=17
(4AAA-/	.	4r	.	1r	.
4F\	.	4D\ 4E\ 4c\	pp	.	.
4d\	.	4D\ 4E\ 4c\	.	.	.
4F\)	.	4D\ 4B\ 4c\	.	.	.
=18	=18	=18	=18	=18	=18
(4AA-/	.	4D\ 4B\ 4c\	.	1r	.
4F\	.	8D\ 8B-\ 8c\L	.	.	.
.	.	8Bn\J	.	.	.
4d\	.	4D\ 4B-\ 4c\	.	.	.
4F\)	.	4D\ 4A-\ 4c\	.	.	.
=19	=19	=19	=19	=19	=19
4AAA-/	.	4r	.	1r	.
4F\	.	4D\ 4E\ 4c\	.	.	.
4d\	.	4D\ 4E\ 4c\	.	.	.
4F\	.	4D\ 4B\ 4c\	.	.	.
=20	=20	=20	=20	=20	=20
(4AA-/	.	4D\ 4B\ 4c\	.	1r	.
4F\	.	8D\ 8B-\ 8c\L	.	.	.
.	.	8Bn\J	.	.	.
4d\	.	4D\ 4B-\ 4c\	.	.	.
4F\)	.	4D\ 4A-\ 4c\	.	.	.
=21	=21	=21	=21	=21	=21
1AAA- 1AA-	pp	2r	.	2r	.
*	*	*clefG2	*clefG2	*	*
.	.	.	.	(gggq/	.
.	.	2f/ 2cc/ 2dd/	p	2gg\)	f
=22	=22	=22	=22	=22	=22
1AAA- 1AA-	pp	2r	.	2r	.
.	.	.	.	(gggq/	.
.	.	2f/ 2cc/ 2dd/	p	2gg\)	f
=23	=23	=23	=23	=23	=23
*^	*	*	*	*	*
4r	[1AAA- [1AA-	pp	1r	.	1r	.
4F/	.	.	.	.	.	.
4c/	.	.	.	.	.	.
[4g/	.	.	.	.	.	.
*v	*v	*	*	*	*	*
=24	=24	=24	=24	=24	=24
.	.	.	.	(gggq/	.
1AAA-] 1AA-] 1F 1c 1g]	.	1a#' 1cc' 1cc#' 1ee' 1ff#'	pp	1gg)	p
==	==	==	==	==	==
*-	*-	*-	*-	*-	*-
!!!ENC: Craig Stuart Sapp
!!!END: 2004/12/09/
